src/assets/img/icons/apple-icon.svg

<svg height="58.4523" viewBox="258.15521935 231.05999921 20.5295613 25.00000158" width="48" xmlns="http://www.w3.org/2000/svg"><path d="m19.8196726 13.1384615c1.0832804 0 2.4411952-.7323585 3.2498411-1.7088366.7323585-.8849332 1.26637-2.12078828 1.26637-3.35664334 0-.16783216-.0152575-.33566433-.0457724-.47298156-1.2053402.04577241-2.6547998.8086459-3.5244756 1.83089638-.6865861.77813092-1.3121424 1.99872852-1.3121424 3.24984102 0 .1830897.030515.3661793.0457724.4272092.0762874.0152575.1983471.0305149.3204069.0305149zm-3.8143675 18.4615385c1.4799746 0 2.1360458-.9917355 3.9821997-.9917355 1.8766688 0 2.2886204.9612206 3.9364272.9612206 1.6172918 0 2.7005721-1.4952321 3.7228226-2.9599492 1.1443102-1.6783217 1.6172918-3.3261284 1.6478067-3.4024157-.1068022-.030515-3.2040686-1.296885-3.2040686-4.8518754 0-3.0820089 2.4411952-4.4704387 2.5785124-4.577241-1.6172918-2.3191354-4.0737445-2.3801653-4.7450731-2.3801653-1.8156389 0-3.2956135 1.0985379-4.2263192 1.0985379-1.006993 0-2.3343928-1.037508-3.9059122-1.037508-2.9904641 0-6.0267006 2.4717101-6.0267006 7.1404959 0 2.8989192 1.1290528 5.9656707 2.5174825 7.9491417 1.1900827 1.6783217 2.2275906 3.051494 3.7228226 3.051494z" fill="#fff" transform="translate(248.89 223.96)"/></svg>

<?xml version="1.0" encoding="UTF-8" standalone="no" ?>
<!DOCTYPE svg PUBLIC "-//W3C//DTD SVG 1.1//EN" "http://www.w3.org/Graphics/SVG/1.1/DTD/svg11.dtd">
<svg xmlns="http://www.w3.org/2000/svg" xmlns:xlink="http://www.w3.org/1999/xlink" version="1.1" width="48" height="58.452299999999994" viewBox="258.15521935 231.05999920858343 20.5295613 25.000001582833125" xml:space="preserve">
<desc>Created with Fabric.js 4.6.0</desc>
<defs>
</defs>
<g transform="matrix(1 0 0 1 268.42 243.56)" id="vcv6WwnHliJJ23_Uo8V6K"  >
<path style="stroke: none; stroke-width: 1; stroke-dasharray: none; stroke-linecap: butt; stroke-dashoffset: 0; stroke-linejoin: miter; stroke-miterlimit: 4; fill: rgb(255,255,255); fill-rule: nonzero; opacity: 1;" vector-effect="non-scaling-stroke"  transform=" translate(-19.53, -19.6)" d="M 19.8196726 13.1384615 C 20.902953 13.1384615 22.2608678 12.406103 23.0695137 11.4296249 C 23.8018722 10.5446917 24.3358837 9.30883662 24.3358837 8.07298156 C 24.3358837 7.9051494 24.3206262 7.73731723 24.2901113 7.6 C 23.0847711 7.64577241 21.6353115 8.4086459 20.7656357 9.43089638 C 20.0790496 10.2090273 19.4534933 11.4296249 19.4534933 12.6807374 C 19.4534933 12.8638271 19.4840083 13.0469167 19.4992657 13.1079466 C 19.5755531 13.1232041 19.6976128 13.1384615 19.8196726 13.1384615 Z M 16.0053051 31.6 C 17.4852797 31.6 18.1413509 30.6082645 19.9875048 30.6082645 C 21.8641736 30.6082645 22.2761252 31.5694851 23.923932 31.5694851 C 25.5412238 31.5694851 26.6245041 30.074253 27.6467546 28.6095359 C 28.7910648 26.9312142 29.2640464 25.2834075 29.2945613 25.2071202 C 29.1877591 25.1766052 26.0904927 23.9102352 26.0904927 20.3552448 C 26.0904927 17.2732359 28.5316879 15.8848061 28.6690051 15.7780038 C 27.0517133 13.4588684 24.5952606 13.3978385 23.923932 13.3978385 C 22.1082931 13.3978385 20.6283185 14.4963764 19.6976128 14.4963764 C 18.6906198 14.4963764 17.36322 13.4588684 15.7917006 13.4588684 C 12.8012365 13.4588684 9.765 15.9305785 9.765 20.5993643 C 9.765 23.4982835 10.8940528 26.565035 12.2824825 28.548506 C 13.4725652 30.2268277 14.5100731 31.6 16.0053051 31.6 Z" stroke-linecap="round" />
</g>
</svg>
